packages/axiom-materials/src/icon_svgs/twitter-mono.svg

<?xml version="1.0" encoding="UTF-8"?>
<svg width="16px" height="16px" viewBox="0 0 16 16" version="1.1" xmlns="http://www.w3.org/2000/svg" xmlns:xlink="http://www.w3.org/1999/xlink">
    <g id="twitter" stroke="none" stroke-width="1" fill="none" fill-rule="evenodd">
        <g transform="translate(0.000000, 2.000000)" fill="#000000">
            <path d="M0,11.5259735 C0.257142857,11.5556825 0.518857143,11.5716797 0.782857143,11.5716797 C2.32114286,11.5716797 3.73714286,11.0460578 4.85942857,10.1662125 C3.42285714,10.1399314 2.21142857,9.19152676 1.79314286,7.88661334 C1.99428571,7.92546365 2.2,7.94603147 2.41142857,7.94603147 C2.71085714,7.94603147 3.104,7.9060385 3.37942857,7.83062319 C1.87771429,7.52896194 0.849142857,6.20348071 0.849142857,4.61290323 C0.849142857,4.81743869 1.69485714,4.96484135 2.23314286,4.98198119 C1.352,4.39351323 0.721142857,3.3891184 0.721142857,2.24989013 C0.721142857,1.64885295 0.857142857,1.08438077 1.13942857,0.599894524 C2.75885714,2.58583106 5.16457143,3.8930298 7.89257143,4.02900589 C7.83657143,3.78904808 7.80114286,3.53880636 7.80114286,3.28170871 C7.80114286,1.46945592 9.26857143,0 11.0811429,0 C12.0251429,0 12.8765714,0.39764437 13.4754286,1.03638921 C14.2228571,0.888986552 14.9245714,0.615891711 15.5588571,0.238815153 C15.3131429,1.00553749 14.7931429,1.64885295 14.1154286,2.05563857 C14.7794286,1.97565263 15.4114286,1.79968357 16,1.53801529 C15.56,2.19618529 15.0034286,2.77436934 14.3622857,3.23714512 C14.3691429,3.37769183 14.3714286,3.51938121 14.3714286,3.66221324 C14.3714286,7.99859365 11.0697143,13 5.032,13 C3.17828571,13 1.45257143,12.4560956 0,11.5259735 Z"></path>
        </g>
    </g>
</svg>

<svg height="16" viewBox="0 0 16 16" width="16" xmlns="http://www.w3.org/2000/svg"><path d="m0 11.5259735c.25714286.029709.51885714.0457062.78285714.0457062 1.53828572 0 2.95428572-.5256219 4.07657143-1.4054672-1.43657143-.0262811-2.648-.97468574-3.06628571-2.27959916.20114285.03885031.40685714.05941813.61828571.05941813.29942857 0 .69257143-.03999297.968-.11540828-1.50171428-.30166125-2.53028571-1.62714248-2.53028571-3.21771996 0 .20453546.84571428.35193812 1.384.36907796-.88114286-.58846796-1.512-1.59286279-1.512-2.73209106 0-.60103718.136-1.16550936.41828571-1.64999561 1.61942857 1.98593654 4.02514286 3.29313528 6.75314286 3.42911137-.056-.23995781-.09142857-.49019953-.09142857-.74729718 0-1.81225279 1.46742857-3.28170871 3.28000004-3.28170871.944 0 1.7954285.39764437 2.3942857 1.03638921.7474285-.14740266 1.4491428-.4204975 2.0834285-.79757406-.2457142.76672234-.7657142 1.4100378-1.4434285 1.81682342.664-.07998594 1.296-.255955 1.8845714-.51762328-.44.65817-.9965714 1.23635405-1.6377143 1.69912983.0068572.14054671.0091429.28223609.0091429.42506812 0 4.33638041-3.3017143 9.33778676-9.3394286 9.33778676-1.85371429 0-3.57942857-.5439044-5.032-1.4740265z" fill-rule="evenodd" transform="translate(0 2)"/></svg>
